web/ui/src/assets/svgs/error/netless.svg

<svg height="279" viewBox="0 0 416 279" width="416" xmlns="http://www.w3.org/2000/svg"><g fill="none"><g><path d="m19.9178295 216.431254c52.2597127 53.278409 242.6151265 10.252703 293.3380375-12.047905 88.346659-38.841598 43.449236 59.548297 88.89393 8.052581 33.657977-38.138592 3.927852-136.3939287-67.039982-181.9392656-61.801793-39.6627404-131.004253-39.22796084-212.586453-6.8693232-86.887803 34.463784-158.8468174 135.4672378-102.6055325 192.8039128z" fill="#deecfd" opacity=".20062156744" transform="translate(0 18)"/><path d="m58 0h274v242h-274z" fill="#000" opacity="0"/><g fill="#e7f2ff"><path d="m211 46.0021504c0 3.3145311-3.512048 5.9978496-7.830994 5.9978496h-31.333021c-2.077393.0010825-4.070243-.6303131-5.540054-1.7552593-1.468444-1.1253454-2.294174-2.6511894-2.295931-4.2425903 0-3.3135752 3.508617-6.0021504 7.836296-6.0021504h31.333022c4.318634-.000239 7.830682 2.6885752 7.830682 6.0021504zm43 .0000007c0 3.3145315-2.463383 5.9978489-5.503164 5.9978489h-21.993672c-3.043204 0-5.503164-2.6857075-5.503164-5.9978489 0-3.3135756 2.459649-6.0021511 5.503164-6.0021511h21.993672c3.039781-.000239 5.503164 2.6885755 5.503164 6.0021511zm49 23.9967737c0 1.857331-.973387 3.6386649-2.707229 4.9517722s-4.085466 2.0503163-6.53707 2.049303h-91.517079c-5.101977 0-9.238622-3.1339153-9.238622-7.0008363 0-3.8650097 4.13696-6.9991637 9.238622-6.9991637h91.517394c2.451285-.0009054 4.802614.736065 6.536574 2.0487403 1.73313 1.3128297 2.70741 3.093431 2.70741 4.9501845zm24 24.4995614c0 3.5903187-3.920897 6.5015138-8.760351 6.5015138h-137.480867c-4.837885 0-8.758782-2.9097977-8.758782-6.5001164 0-3.5889214 3.92121-6.4998836 8.758782-6.4998836h137.477729c4.837571 0 8.760351 2.9086333 8.763489 6.4984862zm8 23.5005588c0 1.856503-.950737 3.637082-2.643859 4.950182-1.692931 1.313263-3.989919 2.051022-6.385013 2.050773h-24.940407c-4.988513 0-9.030721-3.134439-9.030721-6.999761 0-3.8658 4.0419-7.000239 9.030721-7.000239h24.940407c2.394264 0 4.690847.737571 6.385013 2.04934 1.692541 1.313205 2.643859 3.093444 2.643859 4.949705zm-50 0c0 3.867472-6.14197 7.000955-13.73569 7.000955h-176.5383887c-7.5801698 0-13.7259213-3.130378-13.7259213-7.000955 0-3.866039 6.1454363-6.999045 13.7259213-6.999045h176.5383887c7.59372.000239 13.73569 3.133245 13.73569 6.999045z"/><path d="m230 146.997372c0 2.122154-1.109155 4.157498-3.083526 5.658933-1.975455 1.500634-4.654799 2.343695-7.448578 2.343695h-150.935831c-3.762058-.000308-7.238273-1.524778-9.1197513-3.999403-1.8830849-2.474764-1.8830849-5.524996 0-7.999761 1.8805714-2.475501 5.3571477-4.000675 9.1197513-4.000836h150.935831c2.792944-.000336 5.471644.842215 7.446691 2.342262 1.975734 1.499297 3.085413 3.533737 3.085413 5.65511zm134 28.002628c-.001883 4.417767-4.663304 7.998554-10.41577 8h-125.436827c-5.64763-.11306-10.147403-3.662026-10.147403-8 0-4.338215 4.499773-7.886458 10.147403-8h125.433689c5.752151.002411 10.415455 3.582475 10.418908 8z"/><path d="m342 201.500626c0 1.99072-.787004 3.899831-2.188054 5.306728-1.401619 1.405027-3.30054 2.193606-5.279952 2.192646h-139.072406c-4.119827 0-7.459588-3.357606-7.459588-7.499374 0-4.141767 3.339761-7.500626 7.459588-7.500626h139.072717c4.124505 0 7.467695 3.356978 7.467695 7.500626zm29 .000001c0 4.139887-3.35803 7.497493-7.50233 7.499373h-5.99189c-4.146181 0-7.50578-3.357606-7.50578-7.499373 0-4.141768 3.359599-7.500627 7.50578-7.500627h5.991577c4.139595 0 7.502643 3.356979 7.502643 7.500627z"/></g></g><g transform="translate(106 76)"><path d="m.453333 0h203.093333v203h-203.093333z" fill="#000" opacity="0"/><g stroke="#9cd1f5"><path d="m190.853333 12.7443946h-177.7066663c-7.19288899 0-12.69333337 5.522571-12.69333337 12.7443946v118.9476828c0 7.221824 5.50044438 12.744395 12.69333337 12.744395h84.6222223v25.488789h-25.3866667c-2.1155556 0-4.2311111 2.124066-4.2311113 4.248132s2.1155557 4.248131 4.2311113 4.248131h59.2355557c2.115555 0 4.231111-2.124066 4.231111-4.248131 0-2.124066-2.115556-4.248132-4.231111-4.248132h-25.386667v-25.488789h84.622222c7.192889 0 12.693334-5.522571 12.693334-12.744395v-118.9476828c0-7.2218236-5.500445-12.7443946-12.693334-12.7443946z" fill="#fff"/><path d="m195.386667 144.133034c0 2.548879-1.689697 4.248132-4.224243 4.248132h-177.4181816c-2.5345455 0-4.2242424-1.699253-4.2242424-4.248132v-118.9476828c0-2.5488789 1.6896969-4.2481315 4.2242424-4.2481315h177.4181816c2.534546 0 4.224243 1.6992526 4.224243 4.2481315z" fill="#a2ceff"/></g></g><g transform="translate(174 127)"><path d="m0 0h67v67h-67z" fill="#000" opacity="0"/><g fill="#fff"><path d="m6.46406904 52.9008787c3.81733296 2.3137017 7.93803026 2.9096977 12.22445426 1.7598752 4.2864239-1.1526338 7.556016-3.7249753 9.7048458-7.6411191.3785232-.6611421.3711756-1.4752496-.0192189-2.1294402-.3903945-.6541907-1.1030864-1.0466654-1.86417-1.0265861s-1.4521261.4495879-1.8075423 1.1234549c-1.59828 2.912509-3.9324991 4.7511006-7.1065876 5.6001138-3.1740885.8518245-6.1122271.4273179-8.94924429-1.293199-.64410054-.3983731-1.45226165-.4201631-2.11685837-.0570757s-1.08339299 1.0551978-1.09697484 1.8128807c-.01358184.7576829.38014006 1.4643828 1.03129624 1.8510955zm54.07186196-37.896352c-3.817333-2.3137017-7.9380303-2.9096977-12.2244543-1.7598752-4.2864239 1.1526339-7.556016 3.7249753-9.7048458 7.6411191-.3785232.6611421-.3711756 1.4752496.0192189 2.1294402.3903945.6541907 1.1030864 1.0466654 1.86417 1.0265861s1.4521261-.4495879 1.8075423-1.1234549c1.59828-2.912509 3.9324991-4.7511006 7.1065876-5.6001138 3.1740885-.8518245 6.1122271-.4273179 8.9492443 1.293199.6441005.3983731 1.4522616.4201631 2.1168584.0570757.6645967-.3630874 1.083393-1.0551978 1.0969748-1.8128807s-.3801401-1.4643827-1.0312962-1.8510955z"/><path d="m20.8915839 41.7088474 2.6514691-8.234045c.130874-.4052871.4388629-.7299039.8378581-.8830925.3989951-.1531885.8461824-.1185112 1.2165354.094337l12.4904855 7.1748588c.3713516.212969.6257226.5820197.6917157 1.0035658.065993.4215461-.0635051.8501508-.3521465 1.1655121l-5.8377598 6.4001882c-.4474447.4905655-1.1778662.6043258-1.7544407.2732474l-9.3041949-5.3494531c-.5757432-.3314137-.8419056-1.0172677-.6395219-1.6479357zm7.2299933-16.1413198 6.2791997-6.1494765c.452847-.4435641 1.1471625-.5322662 1.6978458-.2169079l8.4637612 4.8649319c.5515055.3167806.8225135.9612695.6621599 1.5746941l-2.2071995 8.4875736c-.1105743.4260567-.4148209.7761844-.8224291.9464532s-.8717315.1411096-1.2546023-.0788221l-12.5357614-7.2058457c-.3830047-.2201942-.6405395-.6060156-.6960821-1.0428234-.0555425-.4368078.0972981-.8743412.4131078-1.1825942z"/><path d="m30.6832137 35.3773771 1.3992535-2.4572968c.2539422-.4392069.2563191-.9827048.0062285-1.424178-.2500905-.4414732-.7143024-.7132308-1.2164174-.7121151-.502115.0011226-.9651441.2749468-1.2133182.7175305l-1.3992534 2.4572968c-.2539412.4392068-.2563175.982704-.006227 1.4241765.2500906.4414725.7143019.7132298 1.2164163.7121144.5021144-.0011222.9651432-.2749455 1.2133177-.7175283zm4.8470141 2.8375252 1.3992535-2.4572968c.2539422-.4392069.2563191-.9827048.0062285-1.424178-.2500905-.4414731-.7143024-.7132308-1.2164174-.7121151-.502115.0011226-.9651441.2749468-1.2133181.7175305l-1.3992536 2.4572968c-.2539403.4392068-.2563162.9827035-.0062257 1.4241755.2500906.441472.7143014.713229 1.2164154.7121138.502114-.001122.9651426-.2749447 1.2133174-.7175267z"/><path d="m33.5 67c18.500375 0 33.5-14.999625 33.5-33.5s-14.999625-33.5-33.5-33.5-33.5 14.999625-33.5 33.5 14.999625 33.5 33.5 33.5zm0-5.5833333c-15.418375 0-27.91666669-12.4982917-27.91666669-27.9166667s12.49829169-27.91666669 27.91666669-27.91666669 27.9166667 12.49829169 27.9166667 27.91666669-12.4982917 27.9166667-27.9166667 27.9166667z"/></g></g></g></svg>

<?xml version="1.0" encoding="UTF-8"?>
<svg width="416px" height="279px" viewBox="0 0 416 279" version="1.1" xmlns="http://www.w3.org/2000/svg" xmlns:xlink="http://www.w3.org/1999/xlink">
    <title>bg_netless</title>
    <g id="页面-1" stroke="none" stroke-width="1" fill="none" fill-rule="evenodd">
        <g id="建木-没有网络" transform="translate(-752.000000, -254.000000)" fill-rule="nonzero">
            <g id="编组-4" transform="translate(752.000000, 254.000000)">
                <g id="编组-2">
                    <g id="bg备份-2" opacity="0.367278343" transform="translate(0.000000, 18.000000)" fill="#DEECFD">
                        <path d="M19.9178295,216.431254 C72.1775422,269.709663 262.532956,226.683957 313.255867,204.383349 C401.602526,165.541751 356.705103,263.931646 402.149797,212.43593 C435.807774,174.297338 406.077649,76.0420013 335.109815,30.4966644 C273.308022,-9.166076 204.105562,-8.73129644 122.523362,23.6273412 C35.635559,58.0911252 -36.3234554,159.094579 19.9178295,216.431254 Z" id="Shape" opacity="0.546239099"></path>
                    </g>
                    <rect id="矩形" fill="#000000" opacity="0" x="58" y="2.84217094e-14" width="274" height="242"></rect>
                    <path d="M211,46.0021504 C211,49.3166815 207.487952,52 203.169006,52 L171.835985,52 C169.758592,52.0010825 167.765742,51.3696869 166.295931,50.2447407 C164.827487,49.1193953 164.001757,47.5935513 164,46.0021504 C164,42.6885752 167.508617,40 171.836296,40 L203.169318,40 C207.487952,39.999761 211,42.6885752 211,46.0021504 L211,46.0021504 Z M254,46.0021511 C254,49.3166826 251.536617,52 248.496836,52 L226.503164,52 C223.45996,52 221,49.3142925 221,46.0021511 C221,42.6885755 223.459649,40 226.503164,40 L248.496836,40 C251.536617,39.999761 254,42.6885755 254,46.0021511 Z M303,69.9989248 C303,71.8562558 302.026613,73.6375897 300.292771,74.950697 C298.558929,76.2638043 296.207305,77.0010133 293.755701,77 L202.238622,77 C197.136645,77 193,73.8660847 193,69.9991637 C193,66.134154 197.13696,63 202.238622,63 L293.756016,63 C296.207301,62.9990946 298.55863,63.736065 300.29259,65.0487403 C302.02572,66.36157 303,68.1421713 303,69.9989248 L303,69.9989248 Z M327,94.4984862 C327,98.0888049 323.079103,101 318.239649,101 L180.758782,101 C175.920897,101 172,98.0902023 172,94.4998836 C172,90.9109622 175.92121,88 180.758782,88 L318.236511,88 C323.074082,88 326.996862,90.9086333 327,94.4984862 Z M335,117.999045 C335,119.855548 334.049263,121.636127 332.356141,122.949227 C330.66321,124.26249 328.366222,125.000249 325.971128,125 L301.030721,125 C296.042208,125 292,121.865561 292,118.000239 C292,114.134439 296.0419,111 301.030721,111 L325.971128,111 C328.365392,111 330.661975,111.737571 332.356141,113.04934 C334.048682,114.362545 335,116.142784 335,117.999045 Z M285,117.999045 C285,121.866517 278.85803,125 271.26431,125 L94.7259213,125 C87.1457515,125 81,121.869622 81,117.999045 C81,114.133006 87.1454363,111 94.7259213,111 L271.26431,111 C278.85803,111.000239 285,114.133245 285,117.999045 L285,117.999045 Z" id="形状" fill="#E7F2FF"></path>
                    <path d="M230,146.997372 C230,149.119526 228.890845,151.15487 226.916474,152.656305 C224.941019,154.156939 222.261675,155 219.467896,155 L68.532065,155 C64.770007,154.999692 61.293792,153.475222 59.4123137,151.000597 C57.5292288,148.525833 57.5292288,145.475601 59.4123137,143.000836 C61.2928851,140.525335 64.7694614,139.000161 68.532065,139 L219.467896,139 C222.26084,138.999664 224.93954,139.842215 226.914587,141.342262 C228.890321,142.841559 230,144.875999 230,146.997372 L230,146.997372 Z M364,175 C363.998117,179.417767 359.336696,182.998554 353.58423,183 L228.147403,183 C222.499773,182.88694 218,179.337974 218,175 C218,170.661785 222.499773,167.113542 228.147403,167 L353.581092,167 C359.333243,167.002411 363.996547,170.582475 364,175 L364,175 Z" id="形状" fill="#E7F2FF"></path>
                    <path d="M342,201.500626 C342,203.491346 341.212996,205.400457 339.811946,206.807354 C338.410327,208.212381 336.511406,209.00096 334.531994,209 L195.459588,209 C191.339761,209 188,205.642394 188,201.500626 C188,197.358859 191.339761,194 195.459588,194 L334.532305,194 C338.65681,194 342,197.356978 342,201.500626 Z M371,201.500627 C371,205.640514 367.64197,208.99812 363.49767,209 L357.50578,209 C353.359599,209 350,205.642394 350,201.500627 C350,197.358859 353.359599,194 357.50578,194 L363.497357,194 C367.636952,194 371,197.356979 371,201.500627 Z" id="形状" fill="#E7F2FF"></path>
                </g>
                <g id="编组-3" transform="translate(106.000000, 76.000000)">
                    <g id="电脑">
                        <rect id="矩形" fill="#000000" opacity="0" x="0.453333333" y="0" width="203.093333" height="203"></rect>
                        <path d="M190.853333,12.7443946 L13.1466667,12.7443946 C5.95377771,12.7443946 0.453333333,18.2669656 0.453333333,25.4887892 L0.453333333,144.436472 C0.453333333,151.658296 5.95377771,157.180867 13.1466667,157.180867 L97.768889,157.180867 L97.768889,182.669656 L72.3822223,182.669656 C70.2666667,182.669656 68.1511112,184.793722 68.151111,186.917788 C68.1511108,189.041854 70.2666667,191.165919 72.3822223,191.165919 L131.617778,191.165919 C133.733333,191.165919 135.848889,189.041853 135.848889,186.917788 C135.848889,184.793722 133.733333,182.669656 131.617778,182.669656 L106.231111,182.669656 L106.231111,157.180867 L190.853333,157.180867 C198.046222,157.180867 203.546667,151.658296 203.546667,144.436472 L203.546667,25.4887892 C203.546667,18.2669656 198.046222,12.7443946 190.853333,12.7443946 Z" id="形状" stroke="#9CD1F5" fill="#FFFFFF"></path>
                        <path d="M195.386667,144.133034 C195.386667,146.681913 193.69697,148.381166 191.162424,148.381166 L13.7442424,148.381166 C11.2096969,148.381166 9.52,146.681913 9.52,144.133034 L9.52,25.1853512 C9.52,22.6364723 11.2096969,20.9372197 13.7442424,20.9372197 L191.162424,20.9372197 C193.69697,20.9372197 195.386667,22.6364723 195.386667,25.1853512 L195.386667,144.133034 Z" id="路径" stroke="#9CD1F5" fill="#A2CEFF"></path>
                    </g>
                    <g id="连接断开" transform="translate(68.000000, 51.000000)">
                        <rect id="矩形" fill="#000000" opacity="0" x="0" y="0" width="67" height="67"></rect>
                        <path d="M6.46406904,52.9008787 C10.281402,55.2145804 14.4020993,55.8105764 18.6885233,54.6607539 C22.9749472,53.5081201 26.2445393,50.9357786 28.3933691,47.0196348 C28.7718923,46.3584927 28.7645447,45.5443852 28.3741502,44.8901946 C27.9837557,44.2360039 27.2710638,43.8435292 26.5099802,43.8636085 C25.7488966,43.8836878 25.0578541,44.3131964 24.7024379,44.9870634 C23.1041579,47.8995724 20.7699388,49.738164 17.5958503,50.5871772 C14.4217618,51.4390017 11.4836232,51.0144951 8.64660601,49.2939782 C8.00250547,48.8956051 7.19434436,48.8738151 6.52974764,49.2369025 C5.86515092,49.5999899 5.44635465,50.2921003 5.4327728,51.0497832 C5.41919096,51.8074661 5.81291286,52.514166 6.46406904,52.9008787 Z M60.535931,15.0045267 C56.718598,12.690825 52.5979007,12.094829 48.3114767,13.2446515 C44.0250528,14.3972854 40.7554607,16.9696268 38.6066309,20.8857706 C38.2281077,21.5469127 38.2354553,22.3610202 38.6258498,23.0152108 C39.0162443,23.6694015 39.7289362,24.0618762 40.4900198,24.0417969 C41.2511034,24.0217176 41.9421459,23.592209 42.2975621,22.918342 C43.8958421,20.005833 46.2300612,18.1672414 49.4041497,17.3182282 C52.5782382,16.4664037 55.5163768,16.8909103 58.353394,18.6114272 C58.9974945,19.0098003 59.8056556,19.0315903 60.4702524,18.6685029 C61.1348491,18.3054155 61.5536454,17.6133051 61.5672272,16.8556222 C61.580809,16.0979393 61.1870871,15.3912395 60.535931,15.0045267 Z" id="形状" fill="#FFFFFF"></path>
                        <path d="M20.8915839,41.7088474 L23.543053,33.4748024 C23.673927,33.0695153 23.9819159,32.7448985 24.3809111,32.5917099 C24.7799062,32.4385214 25.2270935,32.4731987 25.5974465,32.6860469 L38.087932,39.8609057 C38.4592836,40.0738747 38.7136546,40.4429254 38.7796477,40.8644715 C38.8456407,41.2860176 38.7161426,41.7146223 38.4275012,42.0299836 L32.5897414,48.4301718 C32.1422967,48.9207373 31.4118752,49.0344976 30.8353007,48.7034192 L21.5311058,43.3539661 C20.9553626,43.0225524 20.6892002,42.3366984 20.8915839,41.7060304 L20.8915839,41.7088474 Z M28.1215772,25.5675276 L34.4007769,19.4180511 C34.8536239,18.974487 35.5479394,18.8857849 36.0986227,19.2011432 L44.5623839,24.0660751 C45.1138894,24.3828557 45.3848974,25.0273446 45.2245438,25.6407692 L43.0173443,34.1283428 C42.90677,34.5543995 42.6025234,34.9045272 42.1949152,35.074796 C41.787307,35.2450648 41.3231837,35.2159056 40.9403129,34.9959739 L28.4045515,27.7901282 C28.0215468,27.569934 27.764012,27.1841126 27.7084694,26.7473048 C27.6529269,26.310497 27.8057675,25.8729636 28.1215772,25.5647106 L28.1215772,25.5675276 Z" id="形状" fill="#FFFFFF"></path>
                        <path d="M30.6832137,35.3773771 L32.0824672,32.9200803 C32.3364094,32.4808734 32.3387863,31.9373755 32.0886957,31.4959023 C31.8386052,31.0544291 31.3743933,30.7826715 30.8722783,30.7837872 C30.3701633,30.7849098 29.9071342,31.058734 29.6589601,31.5013177 L28.2597067,33.9586145 C28.0057655,34.3978213 28.0033892,34.9413185 28.2534797,35.382791 C28.5035703,35.8242635 28.9677816,36.0960208 29.469896,36.0949054 C29.9720104,36.0937832 30.4350392,35.8199599 30.6832137,35.3773771 Z M35.5302278,38.2149023 L36.9294813,35.7576055 C37.1834235,35.3183986 37.1858004,34.7749007 36.9357098,34.3334275 C36.6856193,33.8919544 36.2214074,33.6201967 35.7192924,33.6213124 C35.2171774,33.622435 34.7541483,33.8962592 34.5059743,34.3388429 L33.1067207,36.7961397 C32.8527804,37.2353465 32.8504045,37.7788432 33.100495,38.2203152 C33.3505856,38.6617872 33.8147964,38.9335442 34.3169104,38.932429 C34.8190244,38.931307 35.282053,38.6574843 35.5302278,38.2149023 Z" id="形状" fill="#FFFFFF"></path>
                        <path d="M33.5,67 C52.000375,67 67,52.000375 67,33.5 C67,14.999625 52.000375,0 33.5,0 C14.999625,0 0,14.999625 0,33.5 C0,52.000375 14.999625,67 33.5,67 Z M33.5,61.4166667 C18.081625,61.4166667 5.58333331,48.918375 5.58333331,33.5 C5.58333331,18.081625 18.081625,5.58333331 33.5,5.58333331 C48.918375,5.58333331 61.4166667,18.081625 61.4166667,33.5 C61.4166667,48.918375 48.918375,61.4166667 33.5,61.4166667 Z" id="形状" fill="#FFFFFF"></path>
                    </g>
                </g>
            </g>
        </g>
    </g>
</svg>
